X:734
T:No Matter What
C:Joe Buchanan's Scottish Tome - Page 518.0
I:518 0
Z:Carl Allison
R:Reel
L:1/8
M:4/4
K:A
z "A"ABc B2 A2 | C2 E6 | z ABc B2 A2 | "Bm/A"D8 |
z "Bm"Bcd c2 B2 | "D/E"F2 G6 | z "E"GAB A2 G2 | "A"A6 z |
z "A"ABc B2 A2 | C2 E6 | z ABc B2 A2 | "Bm/A"D4 z4 |
z "Bm"Bcd c2 B2 | "D/E"F2 "E"G6 | z "E"GAB e2 GA- | "A"A4 z2 z e |
e2 ee- e2 ef- | f2 "A7"ec- c2 | z "D"Adc- cBAF- | F8 |
z "Bm"Bcd c2> B2 | "D/E"F2 "E"G6 | z "Esus4"GAB "E7"e2 GA- | "A"A4 z4 :|
%%vskip 50
[K:C]
z "C"cde d2 c2 | E2 G6 | z cde d2> c2 | "Dm"F8 |
z def e2> d2 | "G7"A2 B6 | z Bcd g2> B2 | "C"c8 "Fc" |]
%%newpage
z "C"cde d2 c2 | E2 "Fc"G6 | z "C"cde d2 c2 | "Dm"F4 z4 |
z def e2 d2 | "F/G"A2 "G7"B4 z2 | "Gsus4"BBcd "G7"g2 Bc- | "C"c4 z2 z g |
g2 gg- g2 ga- | "C7/E"a2 ge- e4 | z "F"cfe- edcA- | A8 |
z "Dm"def e2 d2 | "F/G"A2 B6 | z "Gsus4"Bcd "G7"g2> B2 | c6 z g2 |
"C"g2 gg- g2 ga- | a2 "C7/E"ge- e4 | z "F"cfe- edcA- | A8 |
z "Dm"def e2> d2 | "G7"A2 B2 z GGG | GBcd g2 B2 | "C2"c8 |

